source/images/icons/icon-utility/wheelchair.svg

<?xml version="1.0" encoding="UTF-8"?>
<svg width="24px" height="24px" viewBox="0 0 24 24" version="1.1" xmlns="http://www.w3.org/2000/svg" xmlns:xlink="http://www.w3.org/1999/xlink">
    <!-- Generator: Sketch 55.2 (78181) - https://sketchapp.com -->
    <title>Icons/24px/Wheelchair</title>
    <desc>Created with Sketch.</desc>
    <g id="Icons/24px/Wheelchair" stroke="none" stroke-width="1" fill="none" fill-rule="evenodd">
        <path d="M10.4012794,11.0129341 C11.0148197,11.0538125 11.6182485,11.1886337 12.1903274,11.4128685 C12.2208458,11.3708911 12.2550344,11.330752 12.2928932,11.2928932 L14.56783,9.01795644 C14.6143944,8.97139206 14.6562454,8.92034202 14.6927735,8.86554986 C14.999126,8.40602117 14.8749521,7.78515183 14.4154234,7.47879937 L14.1274179,7.28679568 L10.4012794,11.0129341 Z M6.34380404,12.2419824 L12.4303616,6.15542483 L11.1274179,5.28679568 L8.70710678,7.70710678 C8.31658249,8.09763107 7.68341751,8.09763107 7.29289322,7.70710678 C6.90236893,7.31658249 6.90236893,6.68341751 7.29289322,6.29289322 L10.2928932,3.29289322 C10.6299576,2.95582884 11.1580776,2.90353465 11.5547002,3.16794971 L14.5375177,5.15649472 C14.5484935,5.16350369 14.5593608,5.17074699 14.5701141,5.17822565 L15.5248238,5.81469878 C16.9034099,6.73375615 17.2759315,8.59636418 16.3568741,9.97495025 C16.2472898,10.1393267 16.1217367,10.2924768 15.9820436,10.43217 L14.4142136,12 L19,12 C19.6179394,12 20.0879825,12.5548673 19.9863939,13.164399 L18.9863939,19.164399 C18.8955989,19.7091693 18.3803713,20.077189 17.835601,19.9863939 C17.2908307,19.8955989 16.922811,19.3803713 17.0136061,18.835601 L17.8195396,14 L15.1978381,14 C16.5241315,16.2945883 16.2057278,19.2795731 14.2426269,21.242674 C11.8994811,23.5858198 8.10049125,23.5858198 5.7573455,21.242674 C4.42221631,19.9075448 3.81034096,18.0522653 4.05115663,16.2161606 C4.12297686,15.6685656 4.62511213,15.2828739 5.17270714,15.3546941 C5.72030215,15.4265143 6.10599382,15.9286496 6.03417359,16.4762446 C5.87332901,17.7026079 6.28059948,18.9375009 7.17155906,19.8284605 C8.73365623,21.3905576 11.2663161,21.3905576 12.8284133,19.8284605 C14.3905105,18.2663633 14.3905105,15.7337034 12.8284133,14.1716062 C11.8682853,13.2114782 10.5097009,12.8154962 9.20268182,13.0797457 C8.63401271,13.1947176 8.09752512,13.431422 7.62737062,13.7788278 C7.60943657,13.7933104 7.5911185,13.8070818 7.57245413,13.8201419 C7.55528019,13.8332949 7.5381986,13.8465983 7.52121106,13.8600516 C7.08825499,14.2029328 6.45931465,14.1299126 6.11643351,13.6969566 C5.77355236,13.2640005 5.84657252,12.6350601 6.2795286,12.292179 C6.30085452,12.2752899 6.32228019,12.2585575 6.34380404,12.2419824 Z M18.5,3 C18.2238576,3 18,3.22385763 18,3.5 C18,3.77614237 18.2238576,4 18.5,4 C18.7761424,4 19,3.77614237 19,3.5 C19,3.22385763 18.7761424,3 18.5,3 Z M18.5,1 C19.8807119,1 21,2.11928813 21,3.5 C21,4.88071187 19.8807119,6 18.5,6 C17.1192881,6 16,4.88071187 16,3.5 C16,2.11928813 17.1192881,1 18.5,1 Z" id="Icon" fill="#ADB5BD"></path>
    </g>
</svg>

<svg width="24" height="24">
    <title>
        Icons/24px/Wheelchair
    </title>
    <path d="M10.401 11.013c.614.04 1.217.176 1.79.4.03-.042.064-.082.102-.12l2.275-2.275a1 1 0 0 0-.153-1.54l-.288-.191-3.726 3.726zm-4.057 1.229l6.086-6.087-1.303-.868-2.42 2.42a1 1 0 0 1-1.414-1.414l3-3a1 1 0 0 1 1.262-.125l2.983 1.988a.995.995 0 0 1 .032.022l.955.637a3 3 0 0 1 .457 4.617L14.414 12H19a1 1 0 0 1 .986 1.164l-1 6a1 1 0 1 1-1.972-.328L17.82 14h-2.622A6 6 0 1 1 4.05 16.216a1 1 0 0 1 1.983.26 4 4 0 1 0 1.487-2.616 1 1 0 1 1-1.241-1.568c.02-.017.042-.033.064-.05zM18.5 3a.5.5 0 1 0 0 1 .5.5 0 0 0 0-1zm0-2a2.5 2.5 0 1 1 0 5 2.5 2.5 0 0 1 0-5z" fill="#ADB5BD" fill-rule="evenodd"/>
</svg>
